X:1
T:Title
%%score { ( 1 3 ) | ( 2 4 ) }
L:1/8
M:4/4
K:Db
V:1 treble nm="Grand Piano"
V:3 treble 
V:2 bass 
V:4 bass 
V:1
 z4 z2[Q:1/4=100] A2 | [Fd]3 [Fc] .[Ge]2 G-[GB] | .[DFA]2 [_FB]2 [=FA]2 [Fd]2 | [Gc]3 G c2 B2 | %4
[M:3/4] AB GA F2 |[M:1/4] [FA]2 |[M:4/4] [Fd]3 [Fc] .[Ge]2 G-[GB] | %7
 .[DFA]2 [_FB]2 [A,=FA]2 .[A,FA]2 | [Fc]>[Fc] [_Fc]2- [Fc]BA=G |[M:5/8] F- F3 A |[M:3/8] ABc | %11
[M:4/4] [Fd]2 [Fc]2 [Fe]2 [Fd]2 | z2 D2 DABc | [Fd]2 [Fc]2 [Fe]2 [Fd]2 | G6 z2 | c6 z2 | d6 z2 | %17
 A2 d2 e3 d |[M:3/4] [Fd]6 |] %19
V:2
 z4 z2 A,2 | [D,A,]3 [D,=A,] z[K:treble] d[K:bass] z C | z A, [D,=G,]2 [D,A,]2 [D,A,]2 | %3
 [E,A,]3[K:treble] [A,CE] [A,EG]2 [A,CG]2 |[M:3/4] FG [A,CE][A,F][K:bass] [D,A,D]2 | %5
[M:1/4] [D,D]2 |[M:4/4] [D,A,]3 [D,=A,] z[K:treble] d[K:bass] z C | %7
 z A, [D,=G,]2 D,2 z[K:treble] B | [C,A,]>[C,A,] [C,=G,]2- [C,G,]B,A,G, |[M:5/8] F,- F,3 A, | %10
[M:3/8] A,[K:treble][A,=G][A,_G] |[M:4/4][K:bass] [D,A,]2 [A,,A,]2 [D,A,]2 [A,,A,]2 | %12
 [D,A,D]2 [A,,A,]2 [D,A,]A,[K:treble][A,=G][A,_G] | [D,A,]2 [A,,A,]2 [D,A,]2 [A,,A,]2 | %14
 [E,A,C]2 [A,,A,]2 .[E,A,]2 z2 | z [A,E][A,E][A,E] .[A,E]2 z2 | %16
 z[K:treble] [B,D][B,D][B,D] [B,D][B,F][=G,C_F][G,DF] | [A,DF]2 [A,DF]2 [A,CG]3 [A,F] | %18
[M:3/4][K:bass] [D,A,]6 |] %19
V:3
 x8 | z4 z2 .[B,c]2 | x8 | x8 |[M:3/4] x6 |[M:1/4] x2 |[M:4/4] z4 z2 .[B,c]2 | x8 | x8 | %9
[M:5/8] x5 |[M:3/8] x3 |[M:4/4] x8 | F6 z2 | x8 | z2 C2 CFGA | z GGG GeBc | z FFF FdcB | x8 | %18
[M:3/4] x6 |] %19
V:4
 x8 | z4 [D,B,]2[K:treble][K:bass] D,2 | D,2 z2 z4 | x3[K:treble] x5 | %4
[M:3/4] [A,D]2 z2[K:bass] z2 |[M:1/4] x2 |[M:4/4] z4 [D,B,]2[K:treble][K:bass] D,2 | %7
 D,2 z2 z2 D,2[K:treble] | x8 |[M:5/8] x5 |[M:3/8] x[K:treble] x2 |[M:4/4][K:bass] x8 | %12
 x6[K:treble] x2 | x8 | x8 | x8 | x[K:treble] x7 | x8 |[M:3/4][K:bass] x6 |] %19

